X:13130
T:Pilling Moss
R:Polka
O:England
M:2/4
L:1/8
N:Pilling is a village near Lancaster(AndyH). Lucky in Love (BStocks)
A:Lancashire
B:Winder
K:G
g>f gd | cB AG | Bd A>B | cA A>f | \
g>f gd | cB AG | Bd A>c | BG G2 :|*
|:BG dG | eG dG | BG d>B | cA A>c |\
BG dG | eG dG | Bd A>c | BG G2 :|**
